public/assets/images/logo/02.svg

<svg width="119" height="39" viewBox="0 0 119 39" fill="none" xmlns="http://www.w3.org/2000/svg">
<g clip-path="url(#clip0_212_3954)">
<path d="M15.7732 26.7062C14.9921 27.4873 13.7258 27.4873 12.9448 26.7062L9.41176 23.1732C5.91251 19.674 0 22.1476 0 27.0948V31.5503C0 32.6549 0.89543 33.5503 2 33.5503H26.7179C27.8225 33.5503 28.7179 32.6549 28.7179 31.5503V18.5899C28.7179 16.8081 26.5636 15.9158 25.3037 17.1757L15.7732 26.7062Z" fill="#0353E9"/>
<path d="M12.9448 7.75423C13.7258 6.97319 14.9921 6.97319 15.7732 7.75423L19.3062 11.2873C22.8054 14.7865 28.7179 12.3129 28.7179 7.36566V2.91016C28.7179 1.80559 27.8225 0.910156 26.7179 0.910156H2C0.895429 0.910156 0 1.80559 0 2.91016V15.8706C0 17.6524 2.15428 18.5447 3.41421 17.2848L12.9448 7.75423Z" fill="#0353E9"/>
<path d="M48.5107 30.2305H41.8662V26.1172H48.2646C50.0811 26.1172 51.5986 25.7891 52.8174 25.1328C54.0479 24.4648 54.9678 23.4629 55.5771 22.1269C56.1982 20.791 56.5088 19.1211 56.5088 17.1172C56.5088 15.1133 56.2041 13.4492 55.5947 12.125C54.9854 10.8008 54.0771 9.81055 52.8701 9.1543C51.6631 8.48633 50.1689 8.15235 48.3877 8.15235H41.7256V4.03907H48.6689C51.2705 4.03907 53.5029 4.56055 55.3662 5.60352C57.2412 6.64649 58.6826 8.14649 59.6904 10.1035C60.6982 12.0605 61.2021 14.3984 61.2021 17.1172C61.2021 19.8359 60.6982 22.1797 59.6904 24.1484C58.6826 26.1055 57.2295 27.6113 55.3311 28.666C53.4443 29.709 51.1709 30.2305 48.5107 30.2305ZM44.3623 4.03907V30.2305H39.6162V4.03907H44.3623ZM64.1377 30.2305V10.5781H68.7607V30.2305H64.1377ZM66.458 7.81836C65.7197 7.81836 65.0869 7.57227 64.5596 7.08008C64.0322 6.5879 63.7686 5.9961 63.7686 5.30469C63.7686 4.60157 64.0322 4.00391 64.5596 3.51172C65.0869 3.01954 65.7197 2.77344 66.458 2.77344C67.1846 2.77344 67.8115 3.01954 68.3389 3.51172C68.8662 4.00391 69.1299 4.59571 69.1299 5.28711C69.1299 5.99024 68.8662 6.5879 68.3389 7.08008C67.8115 7.57227 67.1846 7.81836 66.458 7.81836ZM80.6963 38C78.2002 38 76.2373 37.5137 74.8076 36.541C73.3779 35.5801 72.458 34.4141 72.0479 33.043L76.1963 32.0234C76.3838 32.4102 76.6592 32.791 77.0225 33.166C77.3857 33.5527 77.8721 33.8691 78.4814 34.1152C79.0908 34.373 79.8584 34.5019 80.7842 34.5019C82.0967 34.5019 83.1807 34.1797 84.0361 33.5352C84.9033 32.9023 85.3369 31.8652 85.3369 30.4238V26.7148H85.0732C84.8506 27.1836 84.5107 27.6699 84.0537 28.1738C83.5967 28.666 82.9932 29.0879 82.2432 29.4394C81.5049 29.7793 80.5674 29.9492 79.4307 29.9492C77.9307 29.9492 76.5654 29.5918 75.335 28.8769C74.1162 28.1621 73.1436 27.0957 72.417 25.6777C71.7021 24.2598 71.3447 22.4844 71.3447 20.3516C71.3447 18.1953 71.7021 16.373 72.417 14.8848C73.1436 13.3965 74.1221 12.2656 75.3525 11.4922C76.583 10.7187 77.9541 10.332 79.4658 10.332C80.6143 10.332 81.5635 10.5254 82.3135 10.9121C83.0635 11.2988 83.6611 11.7676 84.1064 12.3184C84.5518 12.8574 84.8975 13.3613 85.1436 13.8301H85.3896V10.5781H89.9072V30.5469C89.9072 32.2227 89.5088 33.6113 88.7119 34.7129C87.915 35.8144 86.8193 36.6348 85.4248 37.1738C84.042 37.7246 82.4658 38 80.6963 38ZM80.7314 26.3105C82.208 26.3105 83.3447 25.7832 84.1416 24.7285C84.9502 23.6621 85.3545 22.1914 85.3545 20.3164C85.3545 19.0742 85.1787 17.9902 84.8271 17.0644C84.4756 16.1387 83.9541 15.418 83.2627 14.9023C82.5713 14.3867 81.7275 14.1289 80.7314 14.1289C79.7002 14.1289 78.8389 14.3984 78.1475 14.9375C77.4561 15.4766 76.9346 16.2148 76.583 17.1523C76.2432 18.0781 76.0732 19.1328 76.0732 20.3164C76.0732 21.5117 76.249 22.5605 76.6006 23.4629C76.9521 24.3652 77.4736 25.0684 78.165 25.5723C78.8682 26.0644 79.7236 26.3105 80.7314 26.3105ZM93.3174 30.2305V10.5781H97.9404V30.2305H93.3174ZM95.6377 7.81836C94.8994 7.81836 94.2666 7.57227 93.7393 7.08008C93.2119 6.5879 92.9482 5.9961 92.9482 5.30469C92.9482 4.60157 93.2119 4.00391 93.7393 3.51172C94.2666 3.01954 94.8994 2.77344 95.6377 2.77344C96.3643 2.77344 96.9912 3.01954 97.5186 3.51172C98.0459 4.00391 98.3096 4.59571 98.3096 5.28711C98.3096 5.99024 98.0459 6.5879 97.5186 7.08008C96.9912 7.57227 96.3643 7.81836 95.6377 7.81836ZM105.147 10.5781L109.103 17.8555L113.128 10.5781H118.032L112.126 20.4219L118.138 30.2305H113.269L109.103 23.1641L105.007 30.2305H100.103L106.062 20.4219L100.243 10.5781H105.147Z" fill="#050D20"/>
</g>
<defs>
<clipPath id="clip0_212_3954">
<rect width="119" height="38" fill="white" transform="translate(0 0.910156)"/>
</clipPath>
</defs>
</svg>

<svg xmlns="http://www.w3.org/2000/svg" width="119" height="39" fill="none" viewBox="0 0 119 39"><g clip-path="url(#a)"><path fill="#0353e9" d="M15.773 26.706a2 2 0 0 1-2.828 0l-3.533-3.533C5.912 19.674 0 22.148 0 27.095v4.455a2 2 0 0 0 2 2h24.718a2 2 0 0 0 2-2V18.59c0-1.782-2.154-2.674-3.414-1.414zM12.945 7.754a2 2 0 0 1 2.828 0l3.533 3.533c3.5 3.5 9.412 1.026 9.412-3.921V2.91a2 2 0 0 0-2-2H2a2 2 0 0 0-2 2v12.96c0 1.782 2.154 2.675 3.414 1.415z"/><path fill="#050d20" d="M48.51 30.23h-6.644v-4.113h6.399q2.725 0 4.552-.984 1.845-1.002 2.76-3.006.932-2.004.932-5.01t-.914-4.992-2.725-2.97q-1.81-1.003-4.482-1.003h-6.662V4.04h6.943q3.903 0 6.697 1.565 2.813 1.563 4.324 4.5 1.512 2.935 1.512 7.013 0 4.079-1.512 7.031-1.51 2.936-4.359 4.518-2.83 1.564-6.82 1.564M44.363 4.04v26.19h-4.746V4.04zm19.776 26.19V10.578h4.623v19.653zm2.32-22.412a2.68 2.68 0 0 1-1.898-.738q-.791-.738-.791-1.775 0-1.055.79-1.793a2.68 2.68 0 0 1 1.899-.739q1.09 0 1.88.739.792.738.792 1.775 0 1.054-.791 1.793a2.66 2.66 0 0 1-1.881.738M80.696 38q-3.744 0-5.888-1.459-2.145-1.44-2.76-3.498l4.148-1.02q.282.58.826 1.143.545.58 1.46.95.913.386 2.302.386 1.97 0 3.252-.967 1.3-.95 1.3-3.111v-3.71h-.263q-.333.704-1.02 1.46-.684.738-1.81 1.265-1.108.51-2.812.51-2.25 0-4.096-1.072-1.828-1.072-2.918-3.2-1.072-2.126-1.072-5.325 0-3.235 1.072-5.467 1.09-2.234 2.936-3.393 1.845-1.16 4.113-1.16 1.722 0 2.848.58t1.792 1.406q.668.81 1.038 1.512h.246v-3.252h4.517v19.969q0 2.514-1.195 4.166t-3.287 2.46q-2.075.828-4.729.827m.035-11.69q2.216 0 3.41-1.581 1.214-1.6 1.213-4.413 0-1.863-.527-3.252t-1.564-2.162-2.532-.773q-1.546 0-2.584.809-1.035.809-1.564 2.214-.51 1.389-.51 3.164 0 1.794.528 3.147.527 1.353 1.564 2.11 1.055.737 2.566.738m12.586 3.92V10.578h4.623v19.653zm2.32-22.412a2.68 2.68 0 0 1-1.898-.738q-.79-.738-.79-1.775 0-1.055.79-1.793a2.68 2.68 0 0 1 1.899-.739q1.09 0 1.88.739.792.738.792 1.775 0 1.054-.791 1.793a2.66 2.66 0 0 1-1.881.738m9.51 2.76 3.956 7.278 4.025-7.278h4.904l-5.906 9.844 6.012 9.808h-4.869l-4.166-7.066-4.096 7.066h-4.904l5.959-9.808-5.819-9.844z"/></g><defs><clipPath id="a"><path fill="#fff" d="M0 .91h119v38H0z"/></clipPath></defs></svg>
